X:1
T:Balderdash!
T:Tom Brier https://musescore.com/user/19465036/scores/5158493 Transcribed from: Album: "Constellations", Track 5: "Balderdash!" https://www.youtube.com/watch?v=J7s9SQC7rPo
T:Balderdash!
C:Tom Brier
%%score { ( 1 3 ) | 2 }
L:1/8
Q:1/2=90
M:4/4
K:Gb
V:1 treble nm="Piano" snm="Pno."
V:3 treble 
V:2 bass 
V:1
"^Moderato""^Swing 8ths." z e- | [egbe'] [egbe']2 [dd'] [Begb]2 [Gg][Aa] | %2
 [Begb] [Begb]2 [Gg] [EGBe]2 ef | (3gfe gf ege=e | f (B[=dab])!8va(! (b [=d'a'b']2)!8va)! z b- |: %5
 [egbe'] [egbe']2 [dd'] [Begb]2 [Gg][Aa] | [Begb] [Begb]2 [Gg] [EGBe]2 [Be]f | %7
 .[eg]ef[eg]- [eg]e [=df]2 | [GBe]2 [B=db][=A=a] [Beb][Aa] [Bfb]2 | %9
 [egbe'] [egbe']2 [dd'] [Begb]2 [Gg][Aa] | [Begb] [Begb]2 [Gg] [EGBe]2 [Bb][=c=c'] | %11
 [dfd'][Bb][=c=c'][df=ad']- [dfad'][Bb] [cec']2 | [Bdfb]2 [Bb][=A=a] [B=eb] [dd']2 [Bb] | %13
 [ceac'] [dd']2 [Bdfb]- [Bdfb] [Aa]2 [Bb] | [GBdg][Aa][Bb][dgbd']- [dgbd'][ee'][dd'][__d__d'] | %15
 [ceac'] [dd']2 [Bdfb]- [Bdfb] [Aa]2 [Bb] | [GBeg] [Ee]2 [B=dfb]- [Bdfb][=A=a] [Bb]2 | %17
 [egbe'] [egbe']2 [dd'] [Begb]2 [Gg][Aa] | [Begb] [Begb]2 [Gg] [E__Bce]2 [Ee][Ff] | %19
 [GBeg] [Bb]2 [G__Beg]- [GBeg][Ee] [Ff]2 |1 [EGBe]2 [Bb][=A=a] [Bb][=c=c'][dd'][=d=d'] :|2 %21
 [EGBe]4 [DFAd]4 |: [DGBd] [DGBd]2 [EAe] [GBdg]2 z2 | %23
!8va(! [dgbd'] [dgbd']2 [eae'] [gbd'g']2!8va)! z2 | [EA=ce] [EAce]2 [FBf] [Acea]2 z2 | %25
!8va(! [ea=c'e'] [eac'e']2 [fbf'] [ac'e'a']2 z [bb'] | %26
 [d'f'd''][bb'][d'd''][bf'b']- [bf'b'] [af'a']2!8va)! [Bb] | %27
 [dfd'][Bb][dd'][Bfb]- [Bfb] [Afa]2 [GBg]- | [GBg][Aa][=A=a][Bb] [ff'] [ee']2 [=e=e'] | %29
 [ff'][ee'][dd'][Bb]- [Bb][Aa][Ff][Ee] | [DGBd] [DGBd]2 [EAe] [GBdg]2 z2 | %31
!8va(! [dgbd'] [dgbd']2 [eae'] [gbd'g']2!8va)! z2 | [EA=ce] [EAce]2 [FBf] [Acea]2 z2 | %33
!8va(! [ea=c'e'] [eac'e']2 [fbf'] [ac'e'a']2 z [bb'] | %34
 [d'f'd''][bb'][d'd''][bg'b']- [bg'b'] [af'a']2!8va)! [Bb] | %35
 [dfd'][Bb][dd'][Bfb]- [Bfb] [A=dfa]2 [GBeg]- | [GBeg][Bb][Aa][Gg] [Ee] [Gg]2 [Ee] |1 %37
 [Dd] [DB]2 [CA] [B,DG]2 [DFAd]2 :|2 [Dd] [DB]2 [CA] [B,DG]2 [B=dfb]2 || %39
 [egbe'] [egbe']2 [dd'] [Begb]2 [Gg][Aa] | [Begb] [Begb]2 [Gg] [EGBe]2 [Be]f | %41
 gege [eg] [=df]2 [G_Be]- | [GBe] [B=db]2 [Beb]- [Beb][=A=a] [Bfb]2 | %43
 [egbe'] [egbe']2 [dd'] [Begb]2 [Gg][Aa] | [Begb] [Begb]2 [Gg] [EGBe][Bb][cc'][=c=c'] | %45
 [dfd'][Bb][=c=c'][df=ad']- [dfad'][Bb] [cec']2 | [Bdfb]2 [Bb][=A=a] [B=eb] [dd']2 [Bb] | %47
 [ceac'] [dd']2 [Bdfb]- [Bdfb] [Aa]2 [Bb] | [GBdg][Aa][Bb][dgbd']- [dgbd'][dd'] [__dg__d']2 | %49
 [ceac'] [dd']2 [Bdfb]- [Bdfb] [Aa]2 [Bb] | [GBeg] [Ee]2 [B=dfb]- [Bdfb][=A=a] [Bb]2 | %51
 [egbe'] [egbe']2 [dd'] [Begb]2 [Gg][Aa] | [Begb] [Begb]2 [Gg] [E__Bce]2 [Ee][Ff] | %53
 [GBeg] [Bb]2 [G__Beg]- [GBeg][Ee] [Ff]2 | [EGBe]4 [egbe']4 || (3[eg]fe [eg]f e[eg]e=e | %56
 f B[=dab]!8va(! b [=d'a'b']2!8va)! z2 | (3[gb]ag [gb]a g[gb]a=e | fdfa [dfac'd']2 z b- |: %59
 [dgbd']2 [ee']2 [gbd'g']2 [ee']2 | [dgbd']2 [Bb][Ada]- [Ada] [Gdg]2 [=G=g] | %61
 [A=cea]2 [Bb]2 [Aea] [Gg]2 [EAce]- | [EAce] [Bb]2 [A=cea]- [Acea][Gg][Ee][=E=e] | %63
 [Fcf] [Aa]2 [Ff] [Ece] [Dd]2 [Ee] | [Fcf] [Aa]2 [dfad']- [dfad'] [Dd]2 [=D=d] | %65
 [Ee] [Gg]2 [Ff]- [Ff] [Dd]2 [=D=d] | [Ee] [Gg]2 [ee']- [ee'][ff'] [dd']2 | %67
 [dgbd']2 [ee']2 [gbd'g']2 [ee'][dgbd']- | [dgbd'] [Bb]2 [Ada]- [Ada] [Gg]2 [Aa]- | %69
 [Aa]2 [Bb]2 [=cfa=c']2 [Bb]2 | [Adfa] [Ff]2 [Adfa]- [Adfa] [Bb]2 [=B=b] | %71
 [=ceg=c'] [ee']2 [Aa] [Begb] [cc']2 [=B=b] | [=ceg=c'] [ee']2 [Aa] [Begb] [cc']2 [Aa] | %73
 [dd'][ee'][dd'][cc']- [cc'][Bb][Aa][Gg] | [Ff][Aa][Ee][Dd]- [Dd] [dfad']2 [Bb] | %75
 [dgbd'] [_f_f']2 [Bdgb]- [Bdgb] [dd']2 [_FBdf]- | [FBdf] [Ada]2 [Bb] [Ada] [Gdg]2 z | %77
 [egc'e'] [gg']2 [Aa]- [Aa][Bb][cc'][Gg]- | [Gg] [cegc']2 [Bb] [cc'] [dd']2 [=d=d'] | %79
 [ea=c'e'] [gg']2 [=ceac']- [ceac'] [ee']2 [Gceg]- | [Gceg] [Beb]2 [=c=c'] [Beb] [Aea]2 z | %81
 [dfad'] [Aa]2 [Bb] [cc'][Bb][Aa][Gg] | [Ff][Aa][Dd][Ee]- [Ee][Ff] [Dd]2 | %83
 [dgbd']2 [ee']2 [gbd'g']2 [ee']2 | [dgbd']2 [Bb][Ada]- [Ada] [Gg]2 [=G=g] | %85
 [A=cea]2 [Bb][Acea]- [Acea] [Gg]2 [EAce]- | [EAce] [Bb]2 [A=cea]- [Acea][Gg][Ee][=E=e] | %87
 [Fcf] [Aa]2 [Ff] [EAe] [Dd]2 [Ee] | [Fcf] [Aa]2 [d=e=gbd']- [degbd']2 [Bb]2 | %89
 [A=cea] [ee']2 [dfad']- [dfad'][Bb][Aa][Bb] |1 [Gg] [dgd']2 b [dfd'][Bb][cc'][=c=c'] :|2 %91
 [GBdg]2 z2 [gbd'g']4 || (3bag ba gbag | [db]dgb [dd']ga=a | baeg fd'b[Bg]- | %95
 [Bg]A=AB !fermata![B,DG]4 |] %96
V:2
 x2 | [EGB] [EGB]2 [DA] [B,EG]2 [G,E]A, | [B,EG] [B,EG]2 G, [E,G,B,]4 | %3
 [E,G,B,]2 [E,G,C]2- [E,G,C] [E,G,C]3 | [B,,F,B,]A,,-[A,,A,]G,,- [G,,G,]F,,-[F,,F,]E,,- |: %5
 [E,,G,]2 .[G,B,E]2 [B,,,B,,]2 .[G,B,E]E,,- | [E,,G,]2 .[G,B,E]2 [B,,,B,,]2 .[G,B,E]C,- | %7
 .[C,E,G,C]2 C,-[C,E,G,C]- [C,E,G,C]B,,-[B,,=D,F,B,]E,- | %8
 [E,G,B,E]B,,,-[B,,,B,,]=C,,- [C,,=C,]=D,,-[D,,=D,]E,,- | %9
 [E,,G,]2 .[G,B,E]2 [B,,,B,,]2 .[G,B,E]E,,- | [E,,G,]2 .[G,B,E]2 [B,,,B,,]2 .[G,B,E]2 | %11
 [F,,F,]G,,-[G,,G,]=G,,- [G,,=G,]=A,,-[A,,=A,]B,,- | %12
 [B,,B,]A,,-[A,,A,]=G,,- [G,,=G,]2 .[G,B,D_F]A,,- | [A,,C]2 .[E,A,C]D,,- [D,,F,]2 .[F,A,D]G,,- | %14
 [G,,B,]2 .[B,DG]2 [B,,B,]2 [B,,B,][__B,,__B,] | [A,,A,]2 .[E,A,C]2 [D,,D,]2 [=D,,=D,]E,,- | %16
 [E,,E,]2 .[G,B,E]B,,,- [B,,,=D,]2 .[F,A,B,=D]E,,- | [E,,G,]2 .[G,B,E]2 [B,,,B,,]2 .[G,B,E]E,,- | %18
 [E,,E,]D,,-[D,,D,]C,,- [C,,C,]2 .[E,G,__B,C]B,,,- | %19
 [B,,,B,,]C,,-[C,,C,]=C,,- [C,,=C,]=D,,-[D,,=D,]E,,- |1 %20
 [E,,E,]2 [B,,B,][=A,,=A,] [B,,B,][_A,,_A,][G,,G,][F,,F,] :|2 %21
 [E,,E,]2 [E,,E,][__E,,__E,] [D,,D,][C,,C,][B,,,B,,][A,,,A,,] |: %22
 [G,,,G,,]2 .[D,G,B,]2 [D,,D,]2 .[D,G,B,]G,,- | %23
 [G,,B,]2 .[G,B,D]2 [D,,D,][=C,,=C,][D,,D,][=D,,=D,] | %24
 [E,,E,]2 .[E,G,A,=C]2 [A,,,A,,]2 .[E,G,A,C]E,,- | %25
 [E,,G,]2 .[E,G,A,=C]A,,- [A,,A,]G,,-[G,,G,]F,,- | [F,,F,]2 .[F,A,CD]2 [D,,D,]2 .[F,A,CD]2 | %27
 [A,,A,]2 .[F,A,CD]2 [D,D]2 [C,C]B,,- | [B,,B,]2 .[G,B,D]2 [A,,A,]2 .[E,G,A,=C]2 | %29
 [D,F,A,C]2 [D,,D,]2 [E,,E,]2 [F,,F,]2 | [G,,G,]2 .[D,G,B,]2 [D,,D,]2 .[D,G,B,]G,,- | %31
 [G,,B,]2 .[G,B,D]2 [D,,D,][=C,,=C,][D,,D,][=D,,=D,] | %32
 [E,,E,]2 .[E,G,A,=C]2 [A,,,A,,]2 .[E,G,A,C]E,,- | %33
 [E,,G,]2 .[E,G,A,=C]A,,- [A,,A,]A,,-[A,,G,]A,,- | [A,,F,]2 .[F,A,CD]2 [D,,D,]2 .[F,A,CD]2 | %35
 [A,,A,]2 .[F,A,CD]2 [D,,D,]2 [=D,,=D,]E,,- | [E,,E,]2 .[E,G,B,]2 [C,C]2 .[G,CE]2 |1 %37
 [F,A,_CD]D,,-[D,,D,]D,- .[D,G,B,]D,,-[D,,D,]G,,, :|2 %38
 [F,A,_CD] [D,,D,]2 G,,- [G,,D,G,]F,,-[F,,A,]E,,- || [E,,G,]2 .[G,B,E]2 [B,,,B,,]2 .[G,B,E]E,,- | %40
 [E,,G,]2 .[G,B,E]2 [B,,,B,,]2 .[G,B,E]C,- | %41
 [C,E,G,C]C,-[C,E,G,C]C,- [C,E,G,C] [B,,=D,F,B,]2 [E,G,B,E]- | %42
 [E,G,B,E]B,,,-[B,,,B,,]=C,,- [C,,=C,]=D,,-[D,,=D,]E,,- | %43
 [E,,G,]2 .[G,B,E]2 [B,,,B,,]2 .[G,B,E]E,,- | [E,,G,]2 .[G,B,E]2 [B,,,B,,]2 .[G,B,E]2 | %45
 [F,,F,]=G,,-[G,,=G,]A,,- [A,,A,]=A,,-[A,,=A,]B,,- | %46
 [B,,B,]2 [B,,B,][A,,A,] [=G,,=G,]2 .[G,B,D_F]A,,- | [A,,A,]2 .[E,A,C]D,,- [D,,F,]2 .[F,A,D]G,,- | %48
 [G,,B,]2 .[B,DG][B,,B,]- [B,,B,][B,,B,] [__B,,__B,]2 | [A,,A,]2 .[E,A,C]2 [D,,D,]2 [=D,,=D,]E,,- | %50
 [E,,E,]2 .[G,B,E]B,,,- [B,,,B,,]2 .[F,A,B,=D]E,,- | [E,,G,]2 .[G,B,E]2 [B,,,B,,]2 .[G,B,E]2 | %52
"_straight 8ths"!ped! [E,,E,][__E,,__E,][D,,D,][__D,,__D,]!ped-up! [C,,C,]4 | %53
 [B,,,B,,]C,,-[C,,C,]=C,,- [C,,=C,]=D,,-[D,,=D,]E,,- | [E,,E,]2 [B,,,B,,]2 [E,,,E,,]4 || %55
 [E,G,B,]E,- [E,G,C]2 E,- [E,G,C]2 B,,- | [B,,F,B,]F,,-[F,,F,]B,,,- [B,,,B,,]2 z A,,- | %57
 [A,,=C]A,,- [A,,C]2 A,,- [A,,C]2 A,,- | [A,,F,C]2 [D,,D,]2 [D,F,A,C]2 [F,,F,]G,,- |: %59
 [G,,B,]2 .[G,B,D]2 [D,,D,]2 .[G,B,D]G,,- | [G,,B,]2 .[G,B,D]2 [D,,D,]2 [=D,,=D,]E,,- | %61
 [E,,G,]2 .[E,G,A,=C]2 [A,,,A,,]2 .[E,G,A,C]E,,- | %62
 [E,,G,]2 .[E,G,A,=C]2 [A,,,A,,]2 .[E,G,A,C]D,,- | [D,,D,]2 .[F,A,D]2 [A,,,A,,]2 .[F,A,D]D,,- | %64
 [D,,D,]2 .[F,A,D]2 [F,,F,]2 .[F,A,D]G,,- | [G,,G,]2 .[G,B,D]2 [D,,D,]2 [=D,,=D,]2 | %66
 [E,,E,]2 E,[D,F,A,C]- [D,F,A,C]2 [D,,D,]G,,- | [G,,B,]2 .[G,B,D]2 [D,,D,]2 .[G,B,D]G,,- | %68
 [G,,B,]2 .[G,B,D]2 [D,,D,]2 .[G,B,D]D,,- | [D,,D,]2 .[F,A,D]2 [A,,,A,,]2 .[F,A,D]D,,- | %70
 [D,,F,]2 .[F,A,D]F,,- [F,,A,]_F,,-[F,,__A,]E,,- | %71
 [E,,G,]2 .[E,G,A,=C]2 [A,,,A,,]2 .[E,G,A,C]E,,- | [E,,G,]2 .[E,G,A,=C]2 [A,,,A,,]2 .[E,G,A,C]2 | %73
 [F,F][G,G][F,F][E,E]- [E,E][D,D][C,C][B,,B,] | [A,,A,]2 [G,,G,][F,,F,]- [F,,F,]2 [D,,D,]G,,,- | %75
 [G,,,G,,]2 .[G,B,D_F]2 [D,,D,]2 .[G,B,DF]2 | [G,,G,]2 .[G,B,D_F]2 [G,,,G,,]2 .[G,B,DF]C,,- | %77
 [C,,E,]2 .[G,CE]2 [G,,G,]2 .[G,CE]2 | [C,C]2 .[G,CE]2 [B,,B,]2 [__B,,__B,]2 | %79
 [A,,A,]2 .[E,G,A,=C]2 [E,,E,]2 .[E,G,A,C]2 | [A,,,A,,]2 .[E,G,A,=C]2 [A,,,A,,]2 .[E,G,A,C]2 | %81
 [D,D] [F,F]2 [G,G] [A,A][G,G][F,F][E,E] | [D,D]2 [__D,__D][C,C]- [C,C][B,,B,][A,,A,][__A,,__A,] | %83
 [G,,G,]2 .[G,B,D]2 [D,,D,]2 .[G,B,D]2 | [G,,,G,,]2 .[G,B,D]2 [D,,D,]2 [=D,,=D,]E,,- | %85
 [E,,G,]2 .[E,G,A,=C]2 [A,,,A,,]2 .[E,G,A,C]E,,- | [E,,G,]2 .[E,G,A,=C]2 [E,,E,]2 .[E,G,A,C]D,,- | %87
 [D,,F,]2 .[F,A,D]2 [A,,,A,,]2 .[F,A,D]D,,- | [D,,D,]2 .[F,A,D]2 [=G,B,D=E]2 [D,,D,]A,,- | %89
 [A,,A,]2 .[E,G,A,=C]2 [D,,D,]2 .[F,A,D]2 |1 [G,,G,] [=G,,=G,]2 A,,- [A,,A,]D,,-[D,,D,]_G,,- :|2 %91
 [G,,G,]2 [D,,D,]2 [G,,,G,,]4 || [D,G,B,D]2 [E,G,B,E]2- [E,G,B,E] [__E,G,B,__E]3 | %93
 [D,G,B,D]D,-[D,D]B,,- [B,,B,]G,,-[G,,G,][=G,,=G,] | [A,,A,]2 .[E,G,A,=C]2 [D,,D,]2 .[F,A,D]2 | %95
 [G,,G,]2 [D,,D,]2 !fermata![G,,,G,,]4 |] %96
V:3
 x2 | x8 | x8 | B2 c2- c c3 | x3!8va(! x3!8va)! x2 |: x8 | x8 | __B3 B- B2 A2 | x8 | x8 | x8 | x8 | %12
 x8 | x8 | x8 | x8 | x8 | x8 | x8 | x8 |1 x8 :|2 x8 |: x8 |!8va(! x6!8va)! x2 | x8 |!8va(! x8 | %26
 x7!8va)! x | x8 | x8 | x8 | x8 |!8va(! x6!8va)! x2 | x8 |!8va(! x8 | x7!8va)! x | x8 | x8 |1 %37
 x8 :|2 x8 || x8 | x8 | __B2 B2 B A2 x | x8 | x8 | x8 | x8 | x8 | x8 | x8 | x8 | x8 | x8 | x8 | %53
 x8 | x8 || B2 c2- c c3 | x3!8va(! x3!8va)! x2 | =c2 =d2- d e2 z | x8 |: x8 | x8 | x8 | x8 | x8 | %64
 x8 | x8 | x8 | x8 | x8 | z [df] x6 | x8 | x8 | x8 | x8 | x8 | x8 | x8 | x8 | x8 | x8 | x8 | x8 | %82
 x8 | x8 | x8 | x8 | x8 | x8 | x8 | x8 |1 x8 :|2 x8 || d2 e2- e __e3 | x8 | =c4 _c3 x | x8 |] %96

